assets/icons/icon_input_inactive.svg

<svg width="24" height="24" viewBox="0 0 24 24" fill="none"
    xmlns="http://www.w3.org/2000/svg">
    <path d="M6.125 3C5.42929 3.00013 4.75351 3.2323 4.20461 3.65975C3.65571 4.08721 3.26506 4.68553 3.0945 5.36C3.39982 5.25442 3.72617 5.22438 4.04563 5.27244C4.36509 5.3205 4.66816 5.44523 4.9289 5.63596C5.18965 5.82669 5.40031 6.07775 5.54286 6.36766C5.68541 6.65756 5.75562 6.97768 5.74747 7.30064C5.73932 7.62359 5.65306 7.93976 5.49606 8.22211C5.33907 8.50446 5.11602 8.74457 4.84599 8.92191C4.57596 9.09925 4.26698 9.20853 3.9455 9.24042C3.62403 9.27231 3.29961 9.22584 3 9.105V17.875C3 18.7038 3.32924 19.4987 3.91529 20.0847C4.50134 20.6708 5.2962 21 6.125 21H12.022C11.3528 19.9554 10.9981 18.7405 11 17.5C11 16.316 11.3165 15.206 11.87 14.25H8.625C8.45924 14.25 8.30027 14.1842 8.18306 14.0669C8.06585 13.9497 8 13.7908 8 13.625C8 13.4592 8.06585 13.3003 8.18306 13.1831C8.30027 13.0658 8.45924 13 8.625 13H12.81C13.9925 11.7675 15.6565 11 17.5 11C18.7885 11 19.99 11.375 21 12.022V6.125C21 5.2962 20.6708 4.50134 20.0847 3.91529C19.4987 3.32924 18.7038 3 17.875 3H6.125ZM8 10.125C8 9.78 8.28 9.5 8.625 9.5H15.375C15.4571 9.5 15.5383 9.51617 15.6142 9.54757C15.69 9.57898 15.7589 9.62502 15.8169 9.68306C15.875 9.74109 15.921 9.80999 15.9524 9.88582C15.9838 9.96165 16 10.0429 16 10.125C16 10.2071 15.9838 10.2883 15.9524 10.3642C15.921 10.44 15.875 10.5089 15.8169 10.5669C15.7589 10.625 15.69 10.671 15.6142 10.7024C15.5383 10.7338 15.4571 10.75 15.375 10.75H8.625C8.28 10.75 8 10.47 8 10.125Z" fill="#D6D1D5"/>
    <path d="M3.75 6C3.58578 5.99974 3.42311 6.03189 3.27134 6.09462C3.11956 6.15734 2.98166 6.2494 2.86553 6.36553C2.7494 6.48166 2.65734 6.61956 2.59462 6.77134C2.53189 6.92311 2.49974 7.08578 2.5 7.25C2.49974 7.41423 2.53189 7.57689 2.59462 7.72867C2.65734 7.88044 2.7494 8.01835 2.86553 8.13447C2.98166 8.2506 3.11956 8.34266 3.27134 8.40539C3.42311 8.46811 3.58578 8.50027 3.75 8.5C4.08152 8.5 4.39946 8.36831 4.63389 8.13389C4.86831 7.89946 5 7.58152 5 7.25C5 6.91848 4.86831 6.60054 4.63389 6.36612C4.39946 6.1317 4.08152 6 3.75 6Z" fill="#D6D1D5"/>
    <path d="M23 17.5C23 20.5375 20.5375 23 17.5 23C14.4625 23 12 20.5375 12 17.5C12 14.4625 14.4625 12 17.5 12C20.5375 12 23 14.4625 23 17.5ZM18 14C18 13.8674 17.9473 13.7402 17.8536 13.6464C17.7598 13.5527 17.6326 13.5 17.5 13.5C17.3674 13.5 17.2402 13.5527 17.1464 13.6464C17.0527 13.7402 17 13.8674 17 14V17H14C13.8674 17 13.7402 17.0527 13.6464 17.1464C13.5527 17.2402 13.5 17.3674 13.5 17.5C13.5 17.6326 13.5527 17.7598 13.6464 17.8536C13.7402 17.9473 13.8674 18 14 18H17V21C17 21.1326 17.0527 21.2598 17.1464 21.3536C17.2402 21.4473 17.3674 21.5 17.5 21.5C17.6326 21.5 17.7598 21.4473 17.8536 21.3536C17.9473 21.2598 18 21.1326 18 21V18H21C21.1326 18 21.2598 17.9473 21.3536 17.8536C21.4473 17.7598 21.5 17.6326 21.5 17.5C21.5 17.3674 21.4473 17.2402 21.3536 17.1464C21.2598 17.0527 21.1326 17 21 17H18V14Z" fill="#D6D1D5"/>
</svg>

<svg fill="none" xmlns="http://www.w3.org/2000/svg" viewBox="0 0 24 24"><path d="M6.125 3a3.13 3.13 0 0 0-3.03 2.36A2 2 0 1 1 3 9.105v8.77A3.125 3.125 0 0 0 6.125 21h5.897A6.47 6.47 0 0 1 11 17.5a6.46 6.46 0 0 1 .87-3.25H8.625a.625.625 0 1 1 0-1.25h4.185a6.48 6.48 0 0 1 4.69-2 6.47 6.47 0 0 1 3.5 1.022V6.125A3.125 3.125 0 0 0 17.875 3zM8 10.125c0-.345.28-.625.625-.625h6.75a.625.625 0 0 1 0 1.25h-6.75A.625.625 0 0 1 8 10.125" fill="#D6D1D5"/><path d="M3.75 6a1.248 1.248 0 0 0-1.155 1.729 1.248 1.248 0 0 0 2.039.405A1.25 1.25 0 0 0 3.75 6M23 17.5a5.5 5.5 0 1 1-11 0 5.5 5.5 0 0 1 11 0M18 14a.5.5 0 0 0-1 0v3h-3a.5.5 0 0 0 0 1h3v3a.5.5 0 0 0 1 0v-3h3a.5.5 0 0 0 0-1h-3z" fill="#D6D1D5"/></svg>
